X: 193
T: Pao Shanyao
%%abc-version 2.0
%%abcx-abcm2ps-target-version 5.9.1 (29 Sep 2008)
%%abc-creator hum2abc beta
%%abcx-conversion-date 2013/10/02 07:52:29
%%abc-edited-by Helmut Schaffrath
%%humdrum-veritas 3885147481
%%humdrum-veritas-data 1573434056
%%continueall 1
%%barnumbers 0
L: 1/8
M: 4/4
K: G
E2d e d c B A [I:setbarnb 1]| 
E2d e d c B A | 
G2>E2 B e d c | 
B A/ B/ A EG4 | 
F> F E D BB2d | 
A> B F ED4 | 
F4E> F D E | 
BA2DG2F E | 
D8 |]  



